X:1
T:Title
%%score { ( 1 3 ) | 2 }
L:1/8
M:6/8
K:Ab
V:1 treble nm="Grand Piano"
V:3 treble 
V:2 bass 
V:1
 z3 z2[Q:1/4=87] [CE] | [CE]2 [CE] [DF][CE][_C=D] | [CE]3 [CA]2 [CA] | [EB]2 [EB] [EA]2 B | %4
 c3- c2 [CE]/[CE]/ | [CE]2 [CE] [DF][CE][_C=D] | [CE]3 [CA]2 [CEA] | [EG]2 [EG] [=DG]2 F | %8
 E3- E2 E/E/ | B2 =A B2 _c | [Ec]3 [CA]2 [CE] | E2 D F2 E | C3- C2 [CE]/[CE]/ | %13
 [CE]2 [CE] [DF][CE][_C=D] | [CE]3 [EA]2 [EA] | B2 A c2 B |[M:5/8] [CA]-[CA]- [CA]3 |[M:1/8] [CE] | %18
[M:3/4] [Ec]2 [Ec]B AF | [CE]2 [DF] [CA]3 | B2 =A B2 E | c2 _c =c2 [CE] | [CA]2 cc d[_Ge] | %23
[M:15/16] [Fe]->[Fe][Fd]F3/2- F3 |[M:3/4] E2 A B2 A |[M:5/8] c2 B [CA]2 |] %26
V:2
 z3 z2 [A,,A,] | [A,,A,]2 [A,,A,] [A,,A,]2 [A,,A,] | [A,,A,]3 [A,,E,]2 [A,,E,] | %3
 [E,G,]2 [E,G,] [C,A,]2 [E,G,E] | [A,E]3- [A,E]2 [A,,A,] | [A,,A,]2 [A,,A,] [A,,A,]2 [A,,A,] | %6
 [A,,A,]3 [A,,E,]2 A,, | [B,,B,]2 [B,,B,] [B,,B,]2 [B,,A,B,] | [E,G,B,]3- [E,G,B,]2 E, | %9
 [E,G,D]2 [E,_G,C] [E,=G,D]2 [E,G,=D] | [A,,A,]3 [A,,E,]2 [A,,A,] | %11
 [E,G,B,]2 [E,G,B,] [E,G,D]2 [E,C] | [A,,E,A,]3- [A,,E,A,]2 [A,,A,] | %13
 [A,,A,]2 [A,,A,] [A,,A,]2 [A,,A,] | [A,,A,]3 [C,A,]2 [C,A,] | [E,G,D]2 [E,A,C] [E,A,E]2 [E,G,D] | %16
[M:5/8] [A,,E,]-[A,,E,]- [A,,E,]3 |[M:1/8] [A,,A,] |[M:3/4] [A,,A,]2 [A,,A,] [D,A,]2 [D,A,D] | %19
 [A,,A,]2 [A,,A,] [A,,E,]3 | [E,G,D]2 [E,_G,C] [E,=G,D]2 [G,B,D] | [A,E]2 [A,=D] [A,E]2 [A,,A,] | %22
 [A,,A,]2 [A,E][A,,A,] [B,,G,][C,A,] |[M:15/16] [D,A,]->[D,A,][D,A,][D,A,D]3/2- [D,A,D]3 | %24
[M:3/4] [E,A,C]2 [E,CE] [E,DE]2 [E,CE] |[M:5/8] [E,A,E]2 [E,G,D] [A,,E,]2 |] %26
V:3
 x6 | x6 | x6 | x6 | x6 | x6 | x6 | x6 | x6 | x6 | x6 | x6 | x6 | x6 | x6 | x6 |[M:5/8] x5 | %17
[M:1/8] x |[M:3/4] z2 z .F3 | x6 | x6 | x6 | z2 z .E3 |[M:15/16] x15/2 |[M:3/4] x6 |[M:5/8] x5 |] %26

